;FLAVOR:Marlin
;TIME:166
;Filament used: 0.0788418m
;Layer height: 0.2
;MINX:18.7
;MINY:18.7
;MINZ:0.15
;MAXX:216.3
;MAXY:216.3
;MAXZ:0.15
;TARGET_MACHINE.NAME:Creality Ender-3
;Post-Processed by AutoTowersGenerator
;Generated with Cura_SteamEngine 5.6.0
M140 S50
M105
M190 S50
M104 S190
M105
M109 S190
M82 ;absolute extrusion mode
; Ender 3 Custom Start G-code
G92 E0 ; Reset Extruder
G28 ; Home all axes
G1 Z2.0 F3000 ; Move Z Axis up little to prevent scratching of Heat Bed
G1 X0.1 Y20 Z0.3 F5000.0 ; Move to start position
G1 X0.1 Y200.0 Z0.3 F1500.0 E15 ; Draw the first line
G1 X0.4 Y200.0 Z0.3 F5000.0 ; Move to side a little
G1 X0.4 Y20 Z0.3 F1500.0 E30 ; Draw the second line
G92 E0 ; Reset Extruder
G1 Z2.0 F3000 ; Move Z Axis up little to prevent scratching of Heat Bed
G1 X5 Y20 Z0.3 F5000.0 ; Move over to prevent blob squish
G92 E0
G92 E0
G1 F2700 E-0.5
;LAYER_COUNT:1
;LAYER:0
M107
;MESH:AutoTowersGenerator
G0 F6000 X131.277 Y131.442 Z0.15
;TYPE:WALL-OUTER
G1 F2700 E0
G1 F1197 X103.757 Y131.443 E0.68821
G1 F1106 X103.591 Y131.409 E0.69279
G1 F1103.4 X103.558 Y131.277 E0.69648
G1 F1197 X103.557 Y103.757 E1.38469
G1 F1106 X103.591 Y103.591 E1.38927
G1 F1103.4 X103.723 Y103.558 E1.39297
G1 F1197 X131.243 Y103.557 E2.08117
G1 F1106 X131.409 Y103.591 E2.08576
G1 X131.443 Y103.757 E2.09034
G1 F1197 X131.442 Y131.277 E2.77855
G1 F1103.4 X131.409 Y131.409 E2.78224
G1 X131.277 Y131.442 E2.78593
G1 F2700 E2.28593
G0 F6000 X131.277 Y132.308
G0 X144.733 Y144.733
G0 X145.42 Y145.585
G1 F2700 E2.78593
G1 F1197 X89.614 Y145.586 E4.1815
G1 F1106 X89.448 Y145.552 E4.18608
G1 F1103.4 X89.415 Y145.42 E4.18977
G1 F1197 X89.414 Y89.614 E5.58534
G1 F1106 X89.448 Y89.448 E5.58993
G1 F1103.4 X89.58 Y89.415 E5.59362
G1 F1197 X145.386 Y89.414 E6.98918
G1 F1106 X145.552 Y89.448 E6.99377
G1 X145.586 Y89.614 E6.99836
G1 F1197 X145.585 Y145.42 E8.39392
G1 F1103.4 X145.552 Y145.552 E8.39761
G1 X145.42 Y145.585 E8.40131
G1 F2700 E7.90131
G0 F6000 X145.42 Y146.451
G0 X158.876 Y158.876
G0 X159.563 Y159.728
G1 F2700 E8.40131
G1 F1103.4 X159.695 Y159.695 E8.405
G1 X159.728 Y159.563 E8.40869
G1 F1197 X159.729 Y75.471 E10.51162
G1 F1106 X159.695 Y75.305 E10.5162
G1 X159.529 Y75.271 E10.52079
G1 F1197 X75.437 Y75.272 E12.62372
G1 F1103.4 X75.305 Y75.305 E12.62741
G1 F1106 X75.271 Y75.471 E12.63199
G1 F1197 X75.272 Y159.563 E14.73492
G1 F1103.4 X75.305 Y159.695 E14.73861
G1 F1106 X75.471 Y159.729 E14.7432
G1 F1197 X159.563 Y159.728 E16.84612
G1 F2700 E16.34612
G0 F6000 X159.563 Y160.594
G0 X61.982 Y173.018
G0 X61.329 Y173.871
G1 F2700 E16.84612
G1 F1106 X61.163 Y173.837 E16.85071
G1 F1103.4 X61.13 Y173.705 E16.8544
G1 F1197 X61.13 Y117.517 E18.25952
G1 F1200 X61.129 Y61.329 E19.66114
G1 F1106 X61.163 Y61.163 E19.66572
G1 F1103.4 X61.295 Y61.13 E19.66941
G1 F1197 X117.483 Y61.13 E21.07453
G1 F1200 X173.671 Y61.129 E22.47615
G1 F1106 X173.837 Y61.163 E22.48074
G1 X173.871 Y61.329 E22.48532
G1 F1200 X173.871 Y117.517 E23.88694
G1 F1197 X173.87 Y173.705 E25.29206
G1 F1103.4 X173.837 Y173.837 E25.29575
G1 X173.705 Y173.87 E25.29944
G1 F1197 X117.517 Y173.87 E26.70456
G1 F1200 X61.329 Y173.871 E28.10617
G1 F2700 E27.60617
G0 F6000 X61.329 Y174.736
G0 X47.839 Y187.161
G0 X47.186 Y188.014
G1 F2700 E28.10617
G1 F1106 X47.02 Y187.98 E28.11076
G1 F1103.4 X46.987 Y187.848 E28.11445
G1 F1197 X46.987 Y117.517 E29.87325
G1 F1200 X46.986 Y47.186 E31.62766
G1 F1106 X47.02 Y47.02 E31.63225
G1 F1103.4 X47.152 Y46.987 E31.63594
G1 F1197 X117.483 Y46.987 E33.39474
G1 F1200 X187.814 Y46.986 E35.14915
G1 F1106 X187.98 Y47.02 E35.15374
G1 X188.014 Y47.186 E35.15833
G1 F1200 X188.014 Y117.517 E36.91274
G1 F1197 X188.013 Y187.848 E38.67154
G1 F1103.4 X187.98 Y187.98 E38.67523
G1 X187.848 Y188.013 E38.67892
G1 F1197 X117.517 Y188.013 E40.43772
G1 F1200 X47.186 Y188.014 E42.19214
G1 F2700 E41.69214
G0 F6000 X47.186 Y188.879
G0 X33.696 Y201.304
G0 X33.043 Y202.157
G1 F2700 E42.19214
G1 F1106 X32.877 Y202.123 E42.19672
G1 F1103.4 X32.844 Y201.991 E42.20041
G1 F1197 X32.844 Y117.517 E44.31289
G1 F1200 X32.843 Y33.043 E46.42011
G1 F1106 X32.877 Y32.877 E46.42469
G1 F1103.4 X33.009 Y32.844 E46.42838
G1 F1197 X117.483 Y32.844 E48.54087
G1 F1200 X201.957 Y32.843 E50.64808
G1 F1106 X202.123 Y32.877 E50.65266
G1 X202.157 Y33.043 E50.65725
G1 F1200 X202.157 Y117.517 E52.76446
G1 F1197 X202.156 Y201.991 E54.87694
G1 F1103.4 X202.123 Y202.123 E54.88063
G1 X201.991 Y202.156 E54.88432
G1 F1197 X117.517 Y202.156 E56.99681
G1 F1200 X33.043 Y202.157 E59.10402
G1 F2700 E58.60402
G0 F6000 X33.043 Y203.022
G0 X19.553 Y215.447
G0 X18.9 Y216.3
G1 F2700 E59.10402
G1 F1106 X18.734 Y216.266 E59.1086
G1 F1103.4 X18.701 Y216.134 E59.1123
G1 F1197 X18.701 Y117.517 E61.57846
G1 F1200 X18.7 Y18.9 E64.03847
G1 F1106 X18.734 Y18.734 E64.04305
G1 F1103.4 X18.866 Y18.701 E64.04674
G1 F1197 X117.483 Y18.701 E66.51291
G1 F1200 X216.1 Y18.7 E68.97292
G1 F1106 X216.266 Y18.734 E68.9775
G1 X216.3 Y18.9 E68.98209
G1 F1200 X216.3 Y117.517 E71.4421
G1 F1197 X216.299 Y216.134 E73.90826
G1 F1103.4 X216.266 Y216.266 E73.91195
G1 X216.134 Y216.299 E73.91564
G1 F1197 X117.517 Y216.299 E76.3818
G1 F1200 X18.9 Y216.3 E78.84182
;TIME_ELAPSED:166.636694
G1 F2700 E78.34182
M140 S0
G91 ;Relative positioning
G1 E-2 F2700 ;Retract a bit
G1 E-2 Z0.2 F2400 ;Retract and raise Z
G1 X5 Y5 F3000 ;Wipe out
G1 Z10 ;Raise Z more
G90 ;Absolute positioning

G1 X0 Y235 ;Present print
M106 S0 ;Turn-off fan
M104 S0 ;Turn-off hotend
M140 S0 ;Turn-off bed

M84 X Y E ;Disable all steppers but Z

M82 ;absolute extrusion mode
M104 S0
;End of Gcode
;SETTING_3 {"global_quality": "[general]\\nversion = 4\\nname = Ender-3 (Hemera)
;SETTING_3  #3\\ndefinition = creality_ender3\\n\\n[metadata]\\ntype = quality_c
;SETTING_3 hanges\\nquality_type = standard\\nsetting_version = 22\\n\\n[values]
;SETTING_3 \\nadhesion_type = none\\nlayer_height_0 = 0.15\\nretraction_combing 
;SETTING_3 = no_outer_surfaces\\nsupport_enable = True\\nsupport_structure = nor
;SETTING_3 mal\\nsupport_type = buildplate\\n\\n", "extruder_quality": ["[genera
;SETTING_3 l]\\nversion = 4\\nname = Ender-3 (Hemera) #3\\ndefinition = creality
;SETTING_3 _ender3\\n\\n[metadata]\\ntype = quality_changes\\nquality_type = sta
;SETTING_3 ndard\\nintent_category = default\\nposition = 0\\nsetting_version = 
;SETTING_3 22\\n\\n[values]\\nbottom_layers = 3\\ninfill_pattern = gyroid\\ninfi
;SETTING_3 ll_sparse_density = 10\\nmaterial_print_temperature = 190\\nretract_a
;SETTING_3 t_layer_change = True\\nretraction_count_max = 20\\nretraction_extrus
;SETTING_3 ion_window = 5\\nskirt_height = 1\\nslicing_tolerance = exclusive\\ns
;SETTING_3 upport_angle = =math.floor(math.degrees(math.atan(line_width / 2.0 /l
;SETTING_3 ayer_height)))\\ntop_layers = 3\\nwall_line_count = 3\\n\\n"]}
